X: 302
T: Three Halfpence
R: slip-ig
M: 9/8
L: 1/8
Z: 2012 John Chambers <jc:trillian.mit.edu>
B: J. Anderson "Budget of Strathspeys, Reels and Country Dances" (Early 1800s) p.30 #1
F: http://imslp.org/wiki/Anderson%27s_Budget_of_Strathspeys,_Reels_and_Country_Dances_(Various)
K: D
d | AFD AFD A2d | AFD DEF G2B | AFD AFD d2f | efe E2F G2 :|
g | fef d2d d2g | fef def g2a | fef d2d d2f | efe E2F G2 ||
g | fef d2d d2g | fef def gag | fef agf def | efe E2F GA |]

%%sep 2 1 500
%%sep 1 1 500

